X:1
T:Livets Seilads
T:Livets Seilads
T:Halfdan Kjerulf
%%score [ 1 2 3 4 ]
L:1/8
M:2/2
K:Ab
V:1 treble-8 nm="T1"
V:2 treble-8 nm="T2"
V:3 bass nm="B1"
V:4 bass nm="B2"
V:1
!mf! c4 | d4 c2 A2 |!<(! F4 A2 c2!<)! |!>(! a4 g2!>)! f2 | =e4 c4 | !>!d4 c2 c2 | B4 A2 A2 | %7
w: 1.Hvad|vin- dens paa|Ver- dens det|vild- som- me|Hav? Ak,|tu- sin- de|Fa- rer i|
w: 2.Fra|Vug- gen til|Gra- ven maa|kryd- ses om-|kring, blandt|Haa- bets og|Fryg- tens de|
w: 3.Her|fri- stes U-|sta- dig- heds|Eb- be og|Flod; En|Vagt er saa|ond som en|
w: 4.Saa|hid- ser en|Med- bør det|ne- dri- ge|Sind og|pu- ster i|Hjer- tet Dum-|
w: 5.Saa|slip- per Frygt-|ag- tig- hed|Ro- ret i|Hast, naar|For- stav- nen|duk- ker for|
 G4 A2 F2 | c6!p! c2 | d4 d2 d2 | d4 c2!<(! e2 | f4!<)! f2 f2 |!>(! f4 =e2 c2!>)! | %13
w: skum- men- de|Trav! Man|ved kun to|Hav- ne, be-|kjend- te af|Nav- ne, den|
w: stri- di- ge|Ting. Snart|vip- pe vi|op- pe paa|Bøl- ger- nes|Top- pe, snart|
w: an- den er|god. Hver|Ti- me i|Glas- set, hver|Streg paa Kom-|pas- set for-|
w: dri- stig- hed|ind. Vil|Far- ten kun|fø- je vor|At- traa, vort|Ø- je, strax|
w: Bøl- ger- nes|Kast; naar|Vin- de- ne|su- se og|Van- de- ne|Bru- se. saa|
!<(! A4 c2 c2!<)! | f4 e2!>(! d2 | c4 B2!>)! B2 | c4!<(! c4 | a4 g2!<)! f2 |!>(! f4 e2 d2 | %19
w: e- ne vor|Vug- ge, den|an- den vor|Grav, dem|e- ne vor|Vug- ge, den|
w: nær- mes vi|Grun- den i|fly- ven- de|Spring, snart|nær- mes vi|Grun- den i|
w: an- drer, for-|høj- er, for-|ne- drer vort|Mod, for-|an- drer, for-|hø- jer, for-|
w: blæ- ses vi|op af en|æn- ske- lig|Vind, snart|blæ- ses vi|op af en|
w: skræk- kes vi|strax for en|kna- gen- de|Mast, saa|skræk- kes vi|strax for en|
 c4 c2!>)! c2 | F4 ||[K:F]!f![Q:1/4=114]"^Maggiore." c4 | d4 c2 A2 | F4 A2 c2 | a4 g2 f2 | e4 c4 | %26
w: an- den vor|Grav.|6.Dit|For- syn, o|Fa- der! det|fø- rer os|hjem; det|
w: fl.y- ven- de|Spring.||||||
w: ne- drer vort|Mod.||||||
w: øn- ske- lig|Vind.||||||
w: kna- gen- de|Mast.||||||
 d4 d2 d2 | c4 f2 d2 | B4 B2 B2 | A6 A2 | f4 f2 f2 | f4 e2 _e2 | _e4 e2 e2 | _e4 d2 d2 | %34
w: sty- rer saa|sik- kert, hvor|Sø- en er|slem. Vor|Gis- ning kan|fei- le, hvor|vi end vil|sei- le, selv|
w: ||||||||
w: ||||||||
w: ||||||||
w: ||||||||
 c4 A2!<(! F2 | f4 e2 f2!<)! | g4 f2 g2 | a4 g4 |!>(! f4 e2 d2 | c4 A2 F2 | _d4 c2 c2!>)! | %41
w: stav- ne vi|me- re til|ba- ge end|frem, selv|stav- ne vi|me- re til-|ba- ge end|
w: |||||||
w: |||||||
w: |||||||
w: |||||||
 !fermata!c4 |] %42
w: frem,|
w: |
w: |
w: |
w: |
V:2
!mf! c4 | d4 c2 A2 |!<(! F4 A2 c2!<)! |!>(! f4 =e2!>)! f2 | c4 c4 | !>!d4 c2 c2 | B4 A2 A2 | %7
w: 1.Hvad|vin- dens paa|Ver- dens det|vild- som- me|Hav? Ak,|tu- sin- de|Fa- rer i|
w: 2.Fra|Vug- gen til|Gra- ven maa|kryd- ses om-|kring, blandt|Haa- bets og|Fryg- tens de|
w: 3.Her|fri- stes U-|sta- dig- heds|Eb- be og|Flod; En|Vagt er saa|ond som en|
w: 4.Saa|hid- ser en|Med- bør det|ne- dri- ge|Sind og|pu- ster i|Hjer- tet Dum-|
w: 5.Saa|slip- per Frygt-|ag- tig- hed|Ro- ret i|Hast, naar|For- stav- nen|duk- ker for|
 G4 F2 F2 | C6!p! G2 | A4 G2 G2 | A4 A2!<(! A2 | A4!<)! B2 =B2 |!>(! c4 c2 G2!>)! | %13
w: skum- men- de|Trav! Man|ved kun to|Hav- ne, be-|kjend- te af|Nav- ne, den|
w: stri- di- ge|Ting. Snart|vip- pe vi|op- pe paa|Bøl- ger- nes|Top- pe, snart|
w: an- den er|god. Hver|Ti- me i|Glas- set, hver|Streg paa Kom-|pas- set for-|
w: dri- stig- hed|ind. Vil|Far- ten kun|fø- je vor|At- traa, vort|Ø- je, strax|
w: Bøl- ger- nes|Kast; naar|Vin- de- ne|su- se og|Van- de- ne|Bru- se. saa|
!<(! A4 c2 c2!<)! | d4 c2!>(! B2 | A4 G2!>)! G2 | G4!<(! c4 | c4 c2!<)! c2 |!>(! d4 c2 B2 | %19
w: e- ne vor|Vug- ge, den|an- den vor|Grav, dem|e- ne vor|Vug- ge, den|
w: nær- mes vi|Grun- den i|fly- ven- de|Spring, snart|nær- mes vi|Grun- den i|
w: an- drer, for-|høj- er, for-|ne- drer vort|Mod, for-|an- drer, for-|hø- jer, for-|
w: blæ- ses vi|op af en|æn- ske- lig|Vind, snart|blæ- ses vi|op af en|
w: skræk- kes vi|strax for en|kna- gen- de|Mast, saa|skræk- kes vi|strax for en|
 A4 G2!>)! G2 | F4 ||[K:F]!f! c4 | d4 c2 A2 | F4 A2 c2 | f4 e2 f2 | c4 c4 | c4 B2 B2 | B4 A2 A2 | %28
w: an- den vor|Grav.|6.Dit|For- syn, o|Fa- der! det|fø- rer os|hjem; det|sty- rer saa|sik- kert, hvor|
w: fl.y- ven- de|Spring.||||||||
w: ne- drer vort|Mod.||||||||
w: øn- ske- lig|Vind.||||||||
w: kna- gen- de|Mast.||||||||
 A4 G2 G2 | G6 G2 | (F2 G2) A2 =B2 | c4 c2 G2 | (G2 F2) G2 A2 | B4 B2 B2 | A4 A2!<(! F2 | %35
w: Sø- en er|slem. Vor|Gis- * ning kan|fei- le, hvor|vi * end vil|sei- le, selv|stav- ne vi|
w: |||||||
w: |||||||
w: |||||||
w: |||||||
 =B4 B2 B2!<)! | _B4 B2 B2 | A4 e4 |!>(! d4 ^c2 d2 | G4 A2 F2 | G4 G2 G2!>)! | !fermata!A4 |] %42
w: me- re til|ba- ge end|frem, selv|stav- ne vi|me- re til-|ba- ge end|frem,|
w: |||||||
w: |||||||
w: |||||||
w: |||||||
V:3
!mf! C4 | D4 C2 A,2 |!<(! F,4 A,2 C2!<)! |!>(! C4 B,2!>)! A,2 | G,4 G,4 | !>!A,4 G,2 G,2 | %6
w: 1.Hvad|vin- dens paa|Ver- dens det|vild- som- me|Hav? Ak,|tu- sin- de|
w: 2.Fra|Vug- gen til|Gra- ven maa|kryd- ses om-|kring, blandt|Haa- bets og|
w: 3.Her|fri- stes U-|sta- dig- heds|Eb- be og|Flod; En|Vagt er saa|
w: 4.Saa|hid- ser en|Med- bør det|ne- dri- ge|Sind og|pu- ster i|
w: 5.Saa|slip- per Frygt-|ag- tig- hed|Ro- ret i|Hast, naar|For- stav- nen|
 F,4 F,2 F,2 | D,4 =D,2 D,2 | =E,6!p! E,2 | F,4 _E,2 E,2 | E,4 E,2!<(! E,2 | D,4!<)! F,2 G,2 | %12
w: Fa- rer i|skum- men- de|Trav! Man|ved kun to|Hav- ne, be-|kjend- te af|
w: Fryg- tens de|stri- di- ge|Ting. Snart|vip- pe vi|op- pe paa|Bøl- ger- nes|
w: ond som en|an- den er|god. Hver|Ti- me i|Glas- set, hver|Streg paa Kom-|
w: Hjer- tet Dum-|dri- stig- hed|ind. Vil|Far- ten kun|fø- je vor|At- traa, vort|
w: duk- ker for|Bøl- ger- nes|Kast; naar|Vin- de- ne|su- se og|Van- de- ne|
!>(! G,4 G,2 =E,2!>)! |!<(! F,4 G,2 G,2!<)! | A,4 A,2!>(! F,2 | F,4 F,2!>)! F,2 | =E,4!<(! C,4 | %17
w: Nav- ne, den|e- ne vor|Vug- ge, den|an- den vor|Grav, dem|
w: Top- pe, snart|nær- mes vi|Grun- den i|fly- ven- de|Spring, snart|
w: pas- set for-|an- drer, for-|høj- er, for-|ne- drer vort|Mod, for-|
w: Ø- je, strax|blæ- ses vi|op af en|æn- ske- lig|Vind, snart|
w: Bru- se. saa|skræk- kes vi|strax for en|kna- gen- de|Mast, saa|
 F,4 =E,2!<)! F,2 |!>(! F,4 F,2 F,2 | F,4 =E,2!>)! E,2 | F,4 ||[K:F]!f! C4 | D4 C2 A,2 | %23
w: e- ne vor|Vug- ge, den|an- den vor|Grav.|6.Dit|For- syn, o|
w: nær- mes vi|Grun- den i|fl.y- ven- de|Spring.|||
w: an- drer, for-|hø- jer, for-|ne- drer vort|Mod.|||
w: blæ- ses vi|op af en|øn- ske- lig|Vind.|||
w: skræk- kes vi|strax for en|kna- gen- de|Mast.|||
 F,4 A,2 C2 | C4 B,2 A,2 | G,4 G,4 | A,4 B,2 B,2 | G,4 F,2 F,2 | F,4 G,2 G,2 | E,6 E,2 | %30
w: Fa- der! det|fø- rer os|hjem; det|sty- rer saa|sik- kert, hvor|Sø- en er|slem. Vor|
w: |||||||
w: |||||||
w: |||||||
w: |||||||
 (F,2 E,2) F,2 G,2 | G,4 G,2 C,2 | (C,2 D,2) _E,2 F,2 | F,4 F,2 F,2 | F,4 F,2!<(! F,2 | %35
w: Gis- * ning kan|fei- le, hvor|vi * end vil|sei- le, selv|stav- ne vi|
w: |||||
w: |||||
w: |||||
w: |||||
 _A,4 G,2 F,2!<)! | C4 C2 C2 | C4 B,4 |!>(! A,4 G,2 F,2 | E,4 F,2 F,2 | F,4 E,2 E,2!>)! | %41
w: me- re til|ba- ge end|frem, selv|stav- ne vi|me- re til-|ba- ge end|
w: ||||||
w: ||||||
w: ||||||
w: ||||||
 !fermata!F,4 |] %42
w: frem,|
w: |
w: |
w: |
w: |
V:4
!mf! A,,4 | D,4 C,2 A,,2 |!<(! F,,4 A,,2 C,2!<)! |!>(! F,4 D2!>)! C2 | C,4 =E,4 | !>!F,4 =E,2 E,2 | %6
w: 1.Hvad|vin- dens paa|Ver- dens det|vild- som- me|Hav? Ak,|tu- sin- de|
w: 2.Fra|Vug- gen til|Gra- ven maa|kryd- ses om-|kring, blandt|Haa- bets og|
w: 3.Her|fri- stes U-|sta- dig- heds|Eb- be og|Flod; En|Vagt er saa|
w: 4.Saa|hid- ser en|Med- bør det|ne- dri- ge|Sind og|pu- ster i|
w: 5.Saa|slip- per Frygt-|ag- tig- hed|Ro- ret i|Hast, naar|For- stav- nen|
 D,4 C,2 C,2 | G,4 =B,,2 B,,2 | C,6!p! C,2 | B,,4 B,,2 B,,2 | A,,4 A,,2!<(! C,2 | D,4!<)! F,2 G,2 | %12
w: Fa- rer i|skum- men- de|Trav! Man|ved kun to|Hav- ne, be-|kjend- te af|
w: Fryg- tens de|stri- di- ge|Ting. Snart|vip- pe vi|op- pe paa|Bøl- ger- nes|
w: ond som en|an- den er|god. Hver|Ti- me i|Glas- set, hver|Streg paa Kom-|
w: Hjer- tet Dum-|dri- stig- hed|ind. Vil|Far- ten kun|fø- je vor|At- traa, vort|
w: duk- ker for|Bøl- ger- nes|Kast; naar|Vin- de- ne|su- se og|Van- de- ne|
!>(! C,4 C,2 C,2!>)! |!<(! F,4 _E,2 E,2!<)! | D,4 A,,2!>(! B,,2 | C,4 D,2!>)! D,2 | C,4!<(! C,4 | %17
w: Nav- ne, den|e- ne vor|Vug- ge, den|an- den vor|Grav, dem|
w: Top- pe, snart|nær- mes vi|Grun- den i|fly- ven- de|Spring, snart|
w: pas- set for-|an- drer, for-|høj- er, for-|ne- drer vort|Mod, for-|
w: Ø- je, strax|blæ- ses vi|op af en|æn- ske- lig|Vind, snart|
w: Bru- se. saa|skræk- kes vi|strax for en|kna- gen- de|Mast, saa|
 F,,4 G,,2!<)! A,,2 |!>(! B,,4 B,,2 B,,2 | C,4 C,2!>)! C,2 | F,,4 ||[K:F]!f! C,4 | D,4 C,2 A,,2 | %23
w: e- ne vor|Vug- ge, den|an- den vor|Grav.|6.Dit|For- syn, o|
w: nær- mes vi|Grun- den i|fl.y- ven- de|Spring.|||
w: an- drer, for-|hø- jer, for-|ne- drer vort|Mod.|||
w: blæ- ses vi|op af en|øn- ske- lig|Vind.|||
w: skræk- kes vi|strax for en|kna- gen- de|Mast.|||
 F,,4 A,,2 C,2 | F,4 C2 C2 | C,4 E,4 | F,4 G,2 G,2 | E,4 F,2 F,2 | D,4 E,2 E,2 | ^C,6 C,2 | %30
w: Fa- der! det|fø- rer os|hjem; det|sty- rer saa|sik- kert, hvor|Sø- en er|slem. Vor|
w: |||||||
w: |||||||
w: |||||||
w: |||||||
 D,4 D,2 D,2 | C,4 C,2 C,2 | C,4 C,2 C,2 | B,,4 B,,2 B,,2 | C,4 F,2!<(! F,2 | D,4 D,2 D,2!<)! | %36
w: Gis- ning kan|fei- le, hvor|vi end vil|sei- le, selv|stav- ne vi|me- re til|
w: ||||||
w: ||||||
w: ||||||
w: ||||||
 E,4 D,2 E,2 | F,4 C,4 |!>(! D,4 A,,2 B,,2 | C,4 F,2 F,2 | B,,4 C,2 C,2!>)! | !fermata!F,,4 |] %42
w: ba- ge end|frem, selv|stav- ne vi|me- re til-|ba- ge end|frem,|
w: ||||||
w: ||||||
w: ||||||
w: ||||||

